X:180
T:Paddy Carty's
R:reel
Z:transcribed by Dave Marshall
M:C|
K:D
|: FDDF A3B | d2fd efdB | BAFB ABdf |1 afge fdd2 :|2 afeg fdd2 |
| d2fd adfd | Adfd cdec | Adfd adfd | cdeg fddc |
defg ~a3b | afed cdeg | fedB BAFB | ABde faa2 |
